storage/app/icons/phosphoricons/regular/cursor-text.svg

<svg xmlns="http://www.w3.org/2000/svg" fill="currentColor" viewBox="0 0 256 256"><path d="M184 208a8 8 0 0 1-8 8h-16a40 40 0 0 1-32-16 40 40 0 0 1-32 16H80a8 8 0 0 1 0-16h16a24 24 0 0 0 24-24v-40h-16a8 8 0 0 1 0-16h16V80a24 24 0 0 0-24-24H80a8 8 0 0 1 0-16h16a40 40 0 0 1 32 16 40 40 0 0 1 32-16h16a8 8 0 0 1 0 16h-16a24 24 0 0 0-24 24v40h16a8 8 0 0 1 0 16h-16v40a24 24 0 0 0 24 24h16a8 8 0 0 1 8 8"/></svg>

<svg xmlns="http://www.w3.org/2000/svg" viewBox="0 0 256 256" fill="currentColor"><path d="M184,208a8,8,0,0,1-8,8H160a40,40,0,0,1-32-16,40,40,0,0,1-32,16H80a8,8,0,0,1,0-16H96a24,24,0,0,0,24-24V136H104a8,8,0,0,1,0-16h16V80A24,24,0,0,0,96,56H80a8,8,0,0,1,0-16H96a40,40,0,0,1,32,16,40,40,0,0,1,32-16h16a8,8,0,0,1,0,16H160a24,24,0,0,0-24,24v40h16a8,8,0,0,1,0,16H136v40a24,24,0,0,0,24,24h16A8,8,0,0,1,184,208Z"/></svg>
